X:1
T:Title
%%score { ( 1 3 ) | ( 2 4 ) }
L:1/8
M:6/8
K:F
V:1 treble nm="Grand Piano"
V:3 treble 
V:2 bass 
V:4 bass 
V:1
 z3 z2[Q:1/4=84] [Ac] | [Ac]2 [GB] A2 G | F3 z3 | F2 G A>B[Ac] |[M:5/8][K:bass] C-C- C3 | %5
[M:1/8][K:treble] [Ec] |[M:3/4] [Fc]2 [EB] A2 G | F2 E F2 F | [Fd]2 [Fc]=B z [CEG] | %9
[M:5/8] F2- [CF] [G,DF]2 |[M:1/8] [G,=B,F] |[M:3/4] .[CE]2 z2 z2[K:bass] | %12
 [E,C]4- [E,C][K:treble][Ec] | [Ac]2 [GB] [^FA]2 [CEG] |[M:5/8] [A,D^F]3 [B,DG]2 |[M:1/8] [B,G] | %16
[M:3/4] [C^FA]2 [B,GB] [DGB]2 [CFA] | [B,DG]4- [B,DG][B,DG] | [G,B,D]2 [G,A,^C] [G,B,D]2 [G,B,E] | %19
[M:5/8] F2 E F2 |[M:1/8] G |[M:3/4] A2 G A2 B | c4- cc | G2 F G2 A |[M:5/8] B3 z2 |[M:1/8] [GB] | %26
[M:3/4] [FA]>[GB] [FA] [DG]2 [DF] | C->[CD] C [Cc]2 [DB] | [CA]3 [B,G]2 [A,F] | %29
[M:5/8] [A,F]-[A,F]- [A,F]3 |] %30
V:2
 z3 z2 [F,C] | [F,C]2 [F,C] [F,CF]2 [F,B,E] | [A,C]2 G, [F,A,]2 [C,G,C] | %3
 [F,A,C]2 [F,CE][K:treble] F>G[K:bass]F, |[M:5/8] E,2 D, C,2 |[M:1/8] [B,,G,] | %6
[M:3/4] [A,,A,]2 [C,G,] [C,F,C]2 [C,E,B,] | A,4 z2 | [G,,G,]2 .[G,,A,]2 AG,, | %9
[M:5/8] G,,2 A,, =B,,2 |[M:1/8] G,, |[M:3/4] C,=B,, .A,,2 z/ D/G,, | C,4- C,[A,,A,] | %13
 [D,^F,]2 .[D,G,]2 B,D, |[M:5/8] D,3 D,2 |[M:1/8] D, |[M:3/4] D,2 D, D,2 D, | G,4- G,G, | %18
 G,,2 G,, G,,2 G,, |[M:5/8] D,2 ^C, [D,A,D]2 |[M:1/8] [E,G,C] | %21
[M:3/4] [F,C]2 [E,G,C] [F,C]2[K:treble] [G,CE] | [A,CF]4- [A,CF][B,DF] | [CE]2 [CD] [CE]2 [CF] | %24
[M:5/8] G2 z[K:bass] [CE]2 |[M:1/8] [C,C] |[M:3/4] [F,C]3 [B,,B,]2 [B,,B,] | %27
 [B,,G,]3 [A,,F,]2 [B,,F,] | [C,F,]3 [C,E,]2 [F,,F,] |[M:5/8] [F,,F,]-[F,,F,]- [F,,F,]3 |] %30
V:3
 x6 | x6 | z2 B, C2 E | x6 |[M:5/8][K:bass] G,2 F, E,2 |[M:1/8][K:treble] x |[M:3/4] x6 | x6 | %8
 z2 z .[=B,F]3 |[M:5/8] [=B,D]2 z z2 |[M:1/8] x | %11
[M:3/4] G,-[G,D] [F,CF][CE]- [CE]/F/[K:bass][F,=B,D] | x5[K:treble] x | z2 z A, z2 |[M:5/8] x5 | %15
[M:1/8] x |[M:3/4] x6 | x6 | x6 |[M:5/8] A,3 z2 |[M:1/8] x |[M:3/4] x6 | x6 | x6 |[M:5/8] z2 F B2 | %25
[M:1/8] x |[M:3/4] x6 | E2 z2 z2 | x6 |[M:5/8] x5 |] %30
V:4
 x6 | x6 | F,3 z3 | z3[K:treble] .[F,C]3[K:bass] |[M:5/8] x5 |[M:1/8] x |[M:3/4] x6 | %7
 D,2 [C,E,] [=B,,D,A,]2 [A,,F,] | z2 z .G,,3 |[M:5/8] x5 |[M:1/8] x |[M:3/4] z2 z .[G,,G,]3 | x6 | %13
 z2 z .D,3 |[M:5/8] x5 |[M:1/8] x |[M:3/4] x6 | x6 | x6 |[M:5/8] x5 |[M:1/8] x | %21
[M:3/4] x5[K:treble] x | x6 | x6 |[M:5/8] C3[K:bass] z2 |[M:1/8] x |[M:3/4] x6 | x6 | x6 | %29
[M:5/8] x5 |] %30

